icon/pk/women-coat.svg

<svg width="48" height="48" fill="none" xmlns="http://www.w3.org/2000/svg"><path d="M12 10c4-1 7-6 7-6h10s3 5.2 7 6l6 21h-8v13H14V31H6l6-21Z" stroke="#000" stroke-width="4" stroke-linecap="round" stroke-linejoin="round"/><path d="m19 4 5 14 5-14M24 18v26" stroke="#000" stroke-width="4" stroke-linecap="round" stroke-linejoin="round"/></svg>

<svg viewBox="0 0 48 48" fill="none" xmlns="http://www.w3.org/2000/svg" height="1em" width="1em">
  <path d="M12 10C16 9 19 4 19 4H29C29 4 32 9.2 36 10L42 31H34V44H14V31H6L12 10Z" stroke="black" stroke-width="4" stroke-linecap="round" stroke-linejoin="round"/>
  <path d="M19 4L24 18L29 4" stroke="black" stroke-width="4" stroke-linecap="round" stroke-linejoin="round"/>
  <path d="M24 18L24 44" stroke="black" stroke-width="4" stroke-linecap="round" stroke-linejoin="round"/>
</svg>
